static/images/content_images/sc_dom_img/cognitive_psychology.svg

<?xml version="1.0" encoding="UTF-8"?><!DOCTYPE svg PUBLIC "-//W3C//DTD SVG 1.1//EN" "http://www.w3.org/Graphics/SVG/1.1/DTD/svg11.dtd"><svg xmlns="http://www.w3.org/2000/svg" xmlns:xlink="http://www.w3.org/1999/xlink" version="1.1" width="24" height="24" viewBox="0 0 24 24"><path style="stroke:rgb(0,0,0)" d="M13 3C16.88 3 20 6.14 20 10C20 12.8 18.37 15.19 16 16.31V21H9V18H8C6.89 18 6 17.11 6 16V13H4.5C4.08 13 3.84 12.5 4.08 12.19L6 9.66C6.19 5.95 9.23 3 13 3M13 1C8.42 1 4.61 4.43 4.06 8.91L2.5 11C1.92 11.72 1.82 12.72 2.24 13.59C2.6 14.31 3.24 14.8 4 14.95V16C4 17.86 5.28 19.43 7 19.87V23H18V17.47C20.5 15.83 22 13.06 22 10C22 5.04 17.96 1 13 1M16.1 9.42V9C16.1 8.85 16.1 8.76 16.04 8.62L16.93 7.96C17 7.92 17 7.78 17 7.68L16.18 6.32C16.13 6.23 16 6.18 15.9 6.23L14.91 6.65C14.73 6.46 14.5 6.32 14.26 6.23L14.1 5.2C14.07 5.06 14 5 13.88 5H12.29C12.19 5 12.1 5.06 12.1 5.2L11.96 6.23C11.73 6.32 11.5 6.46 11.3 6.65L10.27 6.23C10.18 6.18 10.1 6.23 10.04 6.32L9.24 7.68C9.19 7.82 9.19 7.92 9.29 7.96L10.13 8.62C10.13 8.76 10.1 8.9 10.1 9C10.1 9.14 10.13 9.28 10.13 9.42L9.29 10.07C9.19 10.12 9.19 10.21 9.24 10.31L10.04 11.71C10.1 11.81 10.18 11.81 10.27 11.81L11.26 11.38C11.5 11.57 11.68 11.67 11.96 11.76L12.1 12.84C12.1 12.93 12.19 13 12.29 13H13.88C14 13 14.07 12.93 14.1 12.84L14.26 11.76C14.5 11.67 14.73 11.57 14.91 11.39L15.9 11.81C16 11.81 16.13 11.81 16.18 11.71L17 10.31C17 10.21 17 10.12 16.93 10.07L16.1 9.42M13.1 10.45C12.32 10.45 11.68 9.79 11.68 9S12.29 7.59 13.1 7.59C13.88 7.59 14.54 8.2 14.54 9S13.88 10.45 13.1 10.45Z" /></svg>

<?xml version="1.0" encoding="utf-8"?>
<!-- Generator: Adobe Illustrator 24.1.0, SVG Export Plug-In . SVG Version: 6.00 Build 0)  -->
<svg version="1.1" id="Layer_1" xmlns="http://www.w3.org/2000/svg" xmlns:xlink="http://www.w3.org/1999/xlink" x="0px" y="0px"
	 viewBox="0 0 24 24" style="enable-background:new 0 0 24 24;" xml:space="preserve">
<style type="text/css">
	.st0{fill:#013243;stroke:#013243;}
</style>
<path class="st0" d="M13,3c3.9,0,7,3.1,7,7c0,2.8-1.6,5.2-4,6.3V21H9v-3H8c-1.1,0-2-0.9-2-2v-3H4.5c-0.4,0-0.7-0.5-0.4-0.8L6,9.7
	C6.2,5.9,9.2,3,13,3 M13,1C8.4,1,4.6,4.4,4.1,8.9L2.5,11c-0.6,0.7-0.7,1.7-0.3,2.6c0.4,0.7,1,1.2,1.8,1.4V16c0,1.9,1.3,3.4,3,3.9V23
	h11v-5.5c2.5-1.6,4-4.4,4-7.5C22,5,18,1,13,1 M16.1,9.4V9c0-0.1,0-0.2-0.1-0.4L16.9,8C17,7.9,17,7.8,17,7.7l-0.8-1.4
	c-0.1-0.1-0.2-0.1-0.3-0.1l-1,0.4c-0.2-0.2-0.4-0.3-0.6-0.4l-0.2-1C14.1,5.1,14,5,13.9,5h-1.6c-0.1,0-0.2,0.1-0.2,0.2l-0.1,1
	c-0.2,0.1-0.5,0.2-0.7,0.4l-1-0.4c-0.1-0.1-0.2,0-0.2,0.1L9.2,7.7C9.2,7.8,9.2,7.9,9.3,8l0.8,0.7c0,0.1,0,0.3,0,0.4
	c0,0.1,0,0.3,0,0.4l-0.8,0.6c-0.1,0.1-0.1,0.1-0.1,0.2l0.8,1.4c0.1,0.1,0.1,0.1,0.2,0.1l1-0.4c0.2,0.2,0.4,0.3,0.7,0.4l0.1,1.1
	c0,0.1,0.1,0.2,0.2,0.2h1.6c0.1,0,0.2-0.1,0.2-0.2l0.2-1.1c0.2-0.1,0.5-0.2,0.6-0.4l1,0.4c0.1,0,0.2,0,0.3-0.1l0.8-1.4
	c0-0.1,0-0.2-0.1-0.2L16.1,9.4 M13.1,10.4c-0.8,0-1.4-0.7-1.4-1.4s0.6-1.4,1.4-1.4c0.8,0,1.4,0.6,1.4,1.4S13.9,10.4,13.1,10.4z"/>
</svg>
